svg/emoji_u1f237.svg

<svg enable-background="new 0 0 128 128" viewBox="0 0 128 128" xmlns="http://www.w3.org/2000/svg"><linearGradient id="b" x1="64" x2="64" y1="-.3333" y2="128.1" gradientUnits="userSpaceOnUse"><stop stop-color="#FFEB3B" offset="0"/><stop stop-color="#FFDC28" offset=".419"/><stop stop-color="#FFC107" offset=".9954"/></linearGradient><path d="m116 124h-104c-4.42 0-8-3.58-8-8v-104c0-4.42 3.58-8 8-8h104c4.42 0 8 3.58 8 8v104c0 4.42-3.58 8-8 8z" fill="url(#b)"/><g opacity=".2"><path d="m116 7c2.76 0 5 2.24 5 5v104c0 2.76-2.24 5-5 5h-104c-2.76 0-5-2.24-5-5v-104c0-2.76 2.24-5 5-5h104m0-3h-104c-4.42 0-8 3.58-8 8v104c0 4.42 3.58 8 8 8h104c4.42 0 8-3.58 8-8v-104c0-4.42-3.58-8-8-8z" fill="#424242"/></g><g opacity=".2"><path d="m94.04 24.81c1.08 0 1.96 0.88 1.96 1.96v68.38c0 5.69-1.52 8.44-5.31 9.86-3.77 1.53-9.76 1.78-18.78 1.8-0.86 0-1.62-0.56-1.87-1.39-0.46-1.52-1.14-3.32-1.89-4.97-0.6-1.31 0.35-2.79 1.77-2.79h0.07c2.94 0.1 5.77 0.13 8.14 0.13 2.65 0 4.72-0.04 5.74-0.08 2.08 0 2.84-0.76 2.84-2.75v-14.63c0-1.08-0.88-1.96-1.96-1.96h-39.54c-0.9 0-1.68 0.62-1.9 1.5-2.4 9.47-6.68 18.75-14.27 25.91-0.39 0.36-0.88 0.55-1.37 0.55-0.53 0-1.06-0.21-1.44-0.64-1.06-1.18-2.45-2.51-3.71-3.56-0.89-0.75-0.94-2.1-0.09-2.91 13.2-12.63 14.51-30.33 14.51-44.63v-27.82c0-1.08 0.88-1.96 1.96-1.96h55.14m-46.13 22.56h36.84c1.08 0 1.96-0.88 1.96-1.96v-10.11c0-1.08-0.88-1.96-1.96-1.96h-36.84c-1.08 0-1.96 0.88-1.96 1.96v10.11c0 1.08 0.87 1.96 1.96 1.96m-0.63 22.47h37.47c1.08 0 1.96-0.88 1.96-1.96v-10.11c0-1.08-0.88-1.96-1.96-1.96h-36.86c-1.06 0-1.94 0.85-1.96 1.91-0.06 3.17-0.26 6.52-0.61 9.98-0.11 1.14 0.8 2.14 1.96 2.14m46.76-48.03h-55.14c-2.74 0-4.96 2.23-4.96 4.96v27.81c0 15.3-1.65 31.03-13.59 42.46-1.02 0.97-1.57 2.34-1.53 3.74s0.69 2.73 1.77 3.64c1.18 0.99 2.46 2.22 3.41 3.28 0.93 1.04 2.27 1.63 3.67 1.63 1.28 0 2.5-0.48 3.43-1.36 6.98-6.58 12-15.52 14.92-26.58h37.69v13.34c-0.92 0.04-2.92 0.08-5.58 0.08-2.71 0-5.49-0.05-8.04-0.13h-0.17c-1.69 0-3.25 0.85-4.16 2.27-0.92 1.43-1.05 3.21-0.34 4.77 0.69 1.52 1.33 3.19 1.75 4.58 0.63 2.11 2.54 3.52 4.75 3.52 9.93-0.02 15.74-0.34 19.87-2 6.4-2.42 7.22-8.03 7.22-12.65v-68.4c-0.01-2.74-2.24-4.96-4.97-4.96zm-45.09 14.53h34.76v8.03h-34.76v-8.03zm-0.05 22.47h34.81v8.03h-35.29c0.25-2.75 0.41-5.44 0.48-8.03z" fill="#424242"/></g><linearGradient id="a" x1="58.91" x2="58.91" y1="23.75" y2="108.63" gradientUnits="userSpaceOnUse"><stop stop-color="#424242" offset="0"/><stop stop-color="#212121" offset="1"/></linearGradient><path d="m96 95.15c0 5.69-1.52 8.44-5.31 9.86-3.77 1.53-9.76 1.78-18.78 1.8-0.86 0-1.63-0.56-1.88-1.39-0.46-1.52-1.14-3.32-1.89-4.97-0.61-1.33 0.38-2.84 1.84-2.79 6.21 0.21 11.95 0.13 13.88 0.05 2.08 0 2.84-0.76 2.84-2.75v-14.63c0-1.08-0.88-1.96-1.96-1.96h-39.53c-0.9 0-1.68 0.62-1.9 1.5-2.4 9.47-6.68 18.75-14.27 25.91-0.8 0.76-2.07 0.73-2.81-0.09-1.06-1.18-2.45-2.51-3.71-3.56-0.89-0.75-0.94-2.1-0.09-2.91 13.2-12.63 14.51-30.33 14.51-44.63v-27.82c0-1.08 0.88-1.96 1.96-1.96h55.14c1.08 0 1.96 0.88 1.96 1.96v68.38zm-9.29-27.28v-10.1c0-1.08-0.88-1.96-1.96-1.96h-36.86c-1.06 0-1.94 0.85-1.96 1.91-0.06 3.17-0.26 6.52-0.61 9.98-0.11 1.15 0.8 2.14 1.95 2.14h37.47c1.09 0 1.97-0.88 1.97-1.97zm-40.76-32.57v10.11c0 1.08 0.88 1.96 1.96 1.96h36.84c1.08 0 1.96-0.88 1.96-1.96v-10.11c0-1.08-0.88-1.96-1.96-1.96h-36.84c-1.09 0-1.96 0.88-1.96 1.96z" fill="url(#a)"/></svg>

<svg width="128" height="128" style="enable-background:new 0 0 128 128;" xmlns="http://www.w3.org/2000/svg" xmlns:xlink="http://www.w3.org/1999/xlink">
  <g>
    <linearGradient id="SVGID_1_" gradientUnits="userSpaceOnUse" x1="64" x2="64" y1="-0.3333" y2="128.0974">
      <stop offset="0" style="stop-color:#FFEB3B"/>
      <stop offset="0.419" style="stop-color:#FFDC28"/>
      <stop offset="0.9954" style="stop-color:#FFC107"/>
    </linearGradient>
    <path d="M116,124H12c-4.42,0-8-3.58-8-8V12c0-4.42,3.58-8,8-8h104c4.42,0,8,3.58,8,8v104 C124,120.42,120.42,124,116,124z" style="fill:url(#SVGID_1_);"/>
    <g style="opacity:0.2;">
      <path d="M116,7c2.76,0,5,2.24,5,5v104c0,2.76-2.24,5-5,5H12c-2.76,0-5-2.24-5-5V12c0-2.76,2.24-5,5-5H116 M116,4H12c-4.42,0-8,3.58-8,8v104c0,4.42,3.58,8,8,8h104c4.42,0,8-3.58,8-8V12C124,7.58,120.42,4,116,4L116,4z" style="fill:#424242;"/>
    </g>
    <g style="opacity:0.2;">
      <path d="M94.04,24.81c1.08,0,1.96,0.88,1.96,1.96v68.38c0,5.69-1.52,8.44-5.31,9.86 c-3.77,1.53-9.76,1.78-18.78,1.8c0,0,0,0,0,0c-0.86,0-1.62-0.56-1.87-1.39c-0.46-1.52-1.14-3.32-1.89-4.97 c-0.6-1.31,0.35-2.79,1.77-2.79c0.02,0,0.05,0,0.07,0c2.94,0.1,5.77,0.13,8.14,0.13c2.65,0,4.72-0.04,5.74-0.08 c2.08,0,2.84-0.76,2.84-2.75V80.33c0-1.08-0.88-1.96-1.96-1.96H45.21c-0.9,0-1.68,0.62-1.9,1.5c-2.4,9.47-6.68,18.75-14.27,25.91 c-0.39,0.36-0.88,0.55-1.37,0.55c-0.53,0-1.06-0.21-1.44-0.64c-1.06-1.18-2.45-2.51-3.71-3.56c-0.89-0.75-0.94-2.1-0.09-2.91 c13.2-12.63,14.51-30.33,14.51-44.63V26.77c0-1.08,0.88-1.96,1.96-1.96H94.04 M47.91,47.37h36.84c1.08,0,1.96-0.88,1.96-1.96 V35.3c0-1.08-0.88-1.96-1.96-1.96H47.91c-1.08,0-1.96,0.88-1.96,1.96v10.11C45.95,46.49,46.82,47.37,47.91,47.37 M47.28,69.84 h37.47c1.08,0,1.96-0.88,1.96-1.96V57.77c0-1.08-0.88-1.96-1.96-1.96H47.89c-1.06,0-1.94,0.85-1.96,1.91 c-0.06,3.17-0.26,6.52-0.61,9.98C45.21,68.84,46.12,69.84,47.28,69.84 M94.04,21.81H38.9c-2.74,0-4.96,2.23-4.96,4.96v27.81 c0,15.3-1.65,31.03-13.59,42.46c-1.02,0.97-1.57,2.34-1.53,3.74c0.04,1.4,0.69,2.73,1.77,3.64c1.18,0.99,2.46,2.22,3.41,3.28 c0.93,1.04,2.27,1.63,3.67,1.63c1.28,0,2.5-0.48,3.43-1.36c6.98-6.58,12-15.52,14.92-26.58h37.69v13.34 c-0.92,0.04-2.92,0.08-5.58,0.08c-2.71,0-5.49-0.05-8.04-0.13c-0.06,0-0.11,0-0.17,0c-1.69,0-3.25,0.85-4.16,2.27 c-0.92,1.43-1.05,3.21-0.34,4.77c0.69,1.52,1.33,3.19,1.75,4.58c0.63,2.11,2.54,3.52,4.75,3.52c9.93-0.02,15.74-0.34,19.87-2 c6.4-2.42,7.22-8.03,7.22-12.65V26.77C99,24.03,96.77,21.81,94.04,21.81L94.04,21.81z M48.95,36.34h34.76v8.03H48.95V36.34 L48.95,36.34z M48.9,58.81h34.81v8.03H48.42C48.67,64.09,48.83,61.4,48.9,58.81L48.9,58.81z" style="fill:#424242;"/>
    </g>
    <g>
      <linearGradient id="SVGID_2_" gradientUnits="userSpaceOnUse" x1="58.9105" x2="58.9105" y1="23.75" y2="108.633">
        <stop offset="0" style="stop-color:#424242"/>
        <stop offset="1" style="stop-color:#212121"/>
      </linearGradient>
      <path d="M96,95.15c0,5.69-1.52,8.44-5.31,9.86c-3.77,1.53-9.76,1.78-18.78,1.8 c-0.86,0-1.63-0.56-1.88-1.39c-0.46-1.52-1.14-3.32-1.89-4.97c-0.61-1.33,0.38-2.84,1.84-2.79c6.21,0.21,11.95,0.13,13.88,0.05 c2.08,0,2.84-0.76,2.84-2.75V80.33c0-1.08-0.88-1.96-1.96-1.96H45.21c-0.9,0-1.68,0.62-1.9,1.5c-2.4,9.47-6.68,18.75-14.27,25.91 c-0.8,0.76-2.07,0.73-2.81-0.09c-1.06-1.18-2.45-2.51-3.71-3.56c-0.89-0.75-0.94-2.1-0.09-2.91 c13.2-12.63,14.51-30.33,14.51-44.63V26.77c0-1.08,0.88-1.96,1.96-1.96h55.14c1.08,0,1.96,0.88,1.96,1.96V95.15z M86.71,67.87 V57.77c0-1.08-0.88-1.96-1.96-1.96H47.89c-1.06,0-1.94,0.85-1.96,1.91c-0.06,3.17-0.26,6.52-0.61,9.98 c-0.11,1.15,0.8,2.14,1.95,2.14h37.47C85.83,69.84,86.71,68.96,86.71,67.87z M45.95,35.3v10.11c0,1.08,0.88,1.96,1.96,1.96h36.84 c1.08,0,1.96-0.88,1.96-1.96V35.3c0-1.08-0.88-1.96-1.96-1.96H47.91C46.82,33.34,45.95,34.22,45.95,35.3z" style="fill:url(#SVGID_2_);"/>
    </g>
  </g>
</svg>
